X: 012
T: Glasserton House, a Jig
C: attr. John French (1753-1803)
R: slip-jig
Q: "Slowish"
B: "John French Collection", John French ed. p.1 #2
S: http://www.heallan.com/french.asp
Z: 2012 John Chambers <jc:trillian.mit.edu>
M: 9/8
L: 1/8
K: Gm
c |\
(B/c/).d.B (G>AB/c/) dBG | F2f cAF ABc | (B/c/).d.B (G>AB/c/) dBG | DGB AG^F G2 :|
A |\
(B>cd/e/) fdB bfd | cfd cdB ABc | (B>cd/e/) fdB bfd | ced cBA B2c |
(B>cd/e/) fdB bfd | ced cdB ABc | dfb fdB ecA | dBG cA^F G2 |]

%%sep 2 1 500
%%sep 1 1 500

